X: 55
T: The Raged Sailor
N: Should that be "Ragged"?
%R: jig	% also works as a slip-jig, if you rearrange the bar lines.
B: Stewart "A Select Collection of Airs, Jigs, Marches and Reels", ca.1784, p.26 #55
F: http://imslp.org/wiki/A_Select_Collection_of_Airs,_Jigs,_Marches_and_Reels_%28Various%29
Z: 2017 John Chambers <jc:trillian.mit.edu>
M: 6/8
L: 1/8
K: G
B |\
GAB gfe | dBG ABd | e2A A2B |\
GAB gfe | dBG ABd |TB2G G2 :|
|: g |\
ece dBd | ece dBd | c2A A2g |\
ece dBd | gfe dAc |TB2G G2 :|

%%sep 1 1 500
%%sep 1 1 500

